!!!OTL: VOEGLEIN SINGEN VOEGLEIN SPRINGEN
!!!ARE: Europa, Mitteleuropa, Deutschland
!!!SCT: F0251
!!!YEM: Copyright 1995, estate of Helmut Schaffrath.
**kern
*ICvox
*Ivox
*M2/4
*k[f#c#g#]
*A:
=1
{4a
4a
=2
8a
8g#
8a
8b
=3
4cc#
4cc#
=4
8cc#
8b
8cc#
8dd}
=5
{4ee
4cc#
=6
4a
4e
=7
4a
4cc#
=8
2b}
=9
{8e
8f#
8g#
8a
=10
4b
4b
=11
8g#
8a
8b
8cc#
=12
4dd
4dd}
=13
{4cc#
4ee
=14
4a
4a
=15
8g#
8a
8b
8cc#
=16
2a}
==
!!!AGN: Jugend - Lied, Jahreszeiten, Fruehling
!!!ONB: ESAC (Essen Associative Code) Database: FINK
!!!AMT: simple duple
!!!AIN: vox
!!!EED: Helmut Schaffrath
!!!EEV: 1.0
*-
